X:1
T:Greensleeves
M:6/8
L:1/8
Q:3/8=60
K:Am
A2 | c3 d e/2f/2 | e3 d c | B3 G A/2B/2 | c3 A A |
A3 ^G A | B3 ^G E | A3 d e/2f/2 | e3 d c |
B3 G A/2B/2 | c B A ^G A | B ^G E2 | A4 ||
